snaxkrew/imgs/ranks/recruit.svg

<?xml version="1.0" encoding="UTF-8" standalone="no"?>
<svg xmlns:rdf="http://www.w3.org/1999/02/22-rdf-syntax-ns#" style="enable-background:new 0 0 45 45" xmlns="http://www.w3.org/2000/svg" xml:space="preserve" version="1.1" xmlns:cc="http://creativecommons.org/ns#" viewBox="0 0 45 45" xmlns:dc="http://purl.org/dc/elements/1.1/"><defs><clipPath id="a" clipPathUnits="userSpaceOnUse"><path d="m0 36h36v-36h-36v36z"/></clipPath></defs><g transform="matrix(1.25,0,0,-1.25,0,45)"><g transform="translate(2.75 16.7)"><path d="m0 0 2.25 3.33 3-3 4 2 3-3 4 6 4-3 3 1 2-3 3 3 2-4-2-7-11-5-11 2-6 6l-0.2 4.7z" fill="#99aab5"/></g><g clip-path="url(#a)"><g transform="translate(30 21.3)"><path d="m0 0c0.021 0.288 0.044 0.574 0.044 0.867 0 5.94-4.32 10.9-10 11.8 1.19 0.259 2.03 0.509 0.996 1.03-1.12 0.558-2.23-0.129-3-0.845h-0.001-0.001c-0.769 0.716-1.88 1.4-3 0.845-1.04-0.517-0.193-0.767 0.996-1.03-5.67-0.955-10-5.88-10-11.8 0-0.293 0.023-0.579 0.044-0.867-0.483-6.6-6.3-16.3 12-16.3s12.5 9.7 12 16.3" fill="#ffcc4d"/></g><g transform="translate(21,22)"><path d="m0 0c0-1.66-1.34-2-3-2s-3 0.343-3 2 1.34 3 3 3 3-1.34 3-3" fill="#f4900c"/></g><g transform="translate(13,24.5)"><path d="m0 0c0-0.829-0.671-1.5-1.5-1.5-0.83 0-1.5 0.671-1.5 1.5s0.67 1.5 1.5 1.5c0.829 0 1.5-0.671 1.5-1.5" fill="#662113"/></g><g transform="translate(26,24.5)"><path d="m0 0c0-0.829-0.672-1.5-1.5-1.5-0.83 0-1.5 0.671-1.5 1.5s0.67 1.5 1.5 1.5c0.828 0 1.5-0.671 1.5-1.5" fill="#662113"/></g><g transform="translate(31,11)"><path d="m0 0-3 1-4-6-3 5-2-2-4 2-3-4-3 6-3-2-3.29 7.76c-0.5-1.34-0.7-2.78-0.7-4.26 0-8.01 7.2-14.5 16-14.5 8.84 0 16 6.49 16 14.5 0 1.24-0.19 2.44-0.52 3.6l-2.48-7.1z" fill="#e1e8ed"/></g></g></g></svg>

<?xml version="1.0" encoding="UTF-8" standalone="no"?><svg xmlns:dc="http://purl.org/dc/elements/1.1/" xmlns:cc="http://creativecommons.org/ns#" xmlns:rdf="http://www.w3.org/1999/02/22-rdf-syntax-ns#" xmlns:svg="http://www.w3.org/2000/svg" xmlns="http://www.w3.org/2000/svg" viewBox="0 0 45 45" style="enable-background:new 0 0 45 45;" xml:space="preserve" version="1.1" id="svg2"><metadata id="metadata8"><rdf:RDF><cc:Work rdf:about=""><dc:format>image/svg+xml</dc:format><dc:type rdf:resource="http://purl.org/dc/dcmitype/StillImage"/></cc:Work></rdf:RDF></metadata><defs id="defs6"><clipPath id="clipPath20" clipPathUnits="userSpaceOnUse"><path id="path22" d="M 0,36 36,36 36,0 0,0 0,36 Z"/></clipPath></defs><g transform="matrix(1.25,0,0,-1.25,0,45)" id="g10"><g transform="translate(2.75,16.667)" id="g12"><path id="path14" style="fill:#99aab5;fill-opacity:1;fill-rule:nonzero;stroke:none" d="m 0,0 2.25,3.333 3,-3 4,2 3,-3 4,6 4,-3 3,1 2,-3 3,3 2,-4 -2,-7 -11,-5 -11,2 -6,6 L 0,0 Z"/></g><g id="g16"><g clip-path="url(#clipPath20)" id="g18"><g transform="translate(29.9561,21.2876)" id="g24"><path id="path26" style="fill:#ffcc4d;fill-opacity:1;fill-rule:nonzero;stroke:none" d="m 0,0 c 0.021,0.288 0.044,0.574 0.044,0.867 0,5.943 -4.324,10.864 -9.996,11.819 1.189,0.259 2.031,0.509 0.996,1.026 -1.115,0.558 -2.231,-0.129 -2.999,-0.845 l -10e-4,0 -0.001,0 c -0.769,0.716 -1.883,1.403 -2.999,0.845 -1.035,-0.517 -0.193,-0.767 0.996,-1.026 -5.671,-0.955 -9.996,-5.876 -9.996,-11.819 0,-0.293 0.023,-0.579 0.044,-0.867 -0.483,-6.601 -6.303,-16.288 11.956,-16.288 C 6.303,-16.288 0.482,-6.601 0,0"/></g><g transform="translate(21,22)" id="g28"><path id="path30" style="fill:#f4900c;fill-opacity:1;fill-rule:nonzero;stroke:none" d="m 0,0 c 0,-1.657 -1.343,-2 -3,-2 -1.657,0 -3,0.343 -3,2 0,1.657 1.343,3 3,3 1.657,0 3,-1.343 3,-3"/></g><g transform="translate(13,24.5)" id="g32"><path id="path34" style="fill:#662113;fill-opacity:1;fill-rule:nonzero;stroke:none" d="M 0,0 C 0,-0.829 -0.671,-1.5 -1.5,-1.5 -2.329,-1.5 -3,-0.829 -3,0 -3,0.829 -2.329,1.5 -1.5,1.5 -0.671,1.5 0,0.829 0,0"/></g><g transform="translate(26,24.5)" id="g36"><path id="path38" style="fill:#662113;fill-opacity:1;fill-rule:nonzero;stroke:none" d="M 0,0 C 0,-0.829 -0.672,-1.5 -1.5,-1.5 -2.328,-1.5 -3,-0.829 -3,0 -3,0.829 -2.328,1.5 -1.5,1.5 -0.672,1.5 0,0.829 0,0"/></g><g transform="translate(31,11)" id="g40"><path id="path42" style="fill:#e1e8ed;fill-opacity:1;fill-rule:nonzero;stroke:none" d="m 0,0 -3,1 -4,-6 -3,5 -2,-2 -4,2 -3,-4 -3,6 -3,-2 -3.294,7.765 C -28.751,6.416 -29,4.984 -29,3.5 -29,-4.509 -21.836,-11 -13,-11 -4.164,-11 3,-4.509 3,3.5 3,4.744 2.809,5.944 2.483,7.097 L 0,0 Z"/></g></g></g></g></svg>
